fs/phone_vibrate_20_regular.svg

<svg viewBox="0 0 20 20" fill="none" xmlns="http://www.w3.org/2000/svg" height="1em" width="1em">
  <path d="M8.50005 14.5C8.22391 14.5 8.00005 14.7239 8.00005 15C8.00005 15.2761 8.22391 15.5 8.50005 15.5H11.5001C11.7762 15.5 12.0001 15.2761 12.0001 15C12.0001 14.7239 11.7762 14.5 11.5001 14.5H8.50005ZM7.00005 2C5.89548 2 5.00005 2.89543 5.00005 4V16C5.00005 17.1046 5.89548 18 7.00005 18H13.0001C14.1046 18 15.0001 17.1046 15.0001 16V4C15.0001 2.89543 14.1046 2 13.0001 2H7.00005ZM6.00005 4C6.00005 3.44772 6.44777 3 7.00005 3H13.0001C13.5523 3 14.0001 3.44772 14.0001 4V16C14.0001 16.5523 13.5523 17 13.0001 17H7.00005C6.44777 17 6.00005 16.5523 6.00005 16V4ZM2.91608 7.22265C2.7629 6.99289 2.45247 6.9308 2.2227 7.08397C1.99294 7.23715 1.93085 7.54759 2.08403 7.77735L2.46385 8.34709C2.74783 8.77305 2.78178 9.3185 2.55284 9.77639C2.16341 10.5553 2.22117 11.4831 2.7042 12.2076L3.08403 12.7773C3.2372 13.0071 3.54764 13.0692 3.7774 12.916C4.00717 12.7628 4.06925 12.4524 3.91608 12.2227L3.53625 11.6529C3.25228 11.227 3.21832 10.6815 3.44727 10.2236C3.8367 9.44475 3.77893 8.51693 3.2959 7.79239L2.91608 7.22265ZM16.2227 7.08397C16.4525 6.9308 16.7629 6.99289 16.9161 7.22265L17.2959 7.79239C17.7789 8.51693 17.8367 9.44475 17.4473 10.2236C17.2183 10.6815 17.2523 11.227 17.5363 11.6529L17.9161 12.2227C18.0693 12.4524 18.0072 12.7628 17.7774 12.916C17.5476 13.0692 17.2372 13.0071 17.084 12.7773L16.7042 12.2076C16.2212 11.4831 16.1634 10.5553 16.5528 9.77639C16.7818 9.3185 16.7478 8.77305 16.4639 8.34709L16.084 7.77735C15.9309 7.54759 15.9929 7.23715 16.2227 7.08397Z" fill="#212121"/>
</svg>

<svg viewBox="0 0 20 20" fill="none" xmlns="http://www.w3.org/2000/svg" height="1em" width="1em">
  <path d="M8.5 14.5a.5.5 0 0 0 0 1h3a.5.5 0 0 0 0-1h-3ZM7 2a2 2 0 0 0-2 2v12a2 2 0 0 0 2 2h6a2 2 0 0 0 2-2V4a2 2 0 0 0-2-2H7ZM6 4a1 1 0 0 1 1-1h6a1 1 0 0 1 1 1v12a1 1 0 0 1-1 1H7a1 1 0 0 1-1-1V4ZM2.916 7.223a.5.5 0 0 0-.832.554l.38.57c.284.426.318.972.089 1.43a2.427 2.427 0 0 0 .151 2.43l.38.57a.5.5 0 1 0 .832-.554l-.38-.57a1.427 1.427 0 0 1-.089-1.43 2.427 2.427 0 0 0-.151-2.43l-.38-.57Zm13.307-.139a.5.5 0 0 1 .693.139l.38.57c.483.724.54 1.652.151 2.43a1.426 1.426 0 0 0 .09 1.43l.38.57a.5.5 0 1 1-.833.554l-.38-.57a2.427 2.427 0 0 1-.151-2.43 1.427 1.427 0 0 0-.09-1.43l-.379-.57a.5.5 0 0 1 .139-.693Z" fill="#212121"/>
</svg>
